X: 146
T: When You Meet a Pretty Girl
N:"Spirited"
B:O'Neill's 146
Z:Transcribed by henrik.norbeck@mailbox.swipnet.se
M:C
L:1/8
K:Gm
A|B3 A G2 d2|(cd)(Bc) (BA)(GF)|B({cB}A)Bc d2 g2|dcBA G3||
g|f2 d2 d2 cB|(ABcd) (BA)(GF)|f2 d2 d3 f|(gf)df g2 (bg)|
f2 d2 (ed)(cB)|(AB)(cd) (BAGF)|B({cB}A)Bc d2 g2|dcBA G3||


